packages/icons/src/target-slash.svg

<svg width="24" height="24" viewBox="0 0 24 24" fill="none" xmlns="http://www.w3.org/2000/svg">
<path fill-rule="evenodd" clip-rule="evenodd" d="M2.808 4.222L4.222 2.808L21.192 19.778L19.778 21.192L16.905 18.32C15.7732 19.2012 14.4243 19.7603 13.001 19.938L13 22H11V19.938C9.23775 19.7155 7.5996 18.9131 6.34351 17.6572C5.08743 16.4013 4.28479 14.7632 4.062 13.001L2 13V11H4.062C4.23938 9.57595 4.79843 8.22635 5.68 7.094L2.808 4.222ZM6 12C6.0001 13.1012 6.30325 14.1811 6.87623 15.1215C7.44922 16.0618 8.26994 16.8264 9.24852 17.3314C10.2271 17.8364 11.3258 18.0623 12.4242 17.9844C13.5226 17.9066 14.5784 17.528 15.476 16.89L7.11 8.525C6.38668 9.53924 5.99857 10.7543 6 12ZM13 2L13.001 4.062C14.7632 4.28479 16.4013 5.08743 17.6572 6.34351C18.9131 7.5996 19.7155 9.23775 19.938 11H22V13H19.938C19.8474 13.731 19.6555 14.4458 19.368 15.124L17.797 13.554C18.0701 12.5364 18.0703 11.4649 17.7978 10.4471C17.5253 9.42939 16.9896 8.50135 16.2446 7.75635C15.4996 7.01135 14.5716 6.47566 13.5539 6.20316C12.5361 5.93065 11.4646 5.93094 10.447 6.204L8.875 4.634C9.55332 4.34535 10.2685 4.1525 11 4.061V2H13Z" fill="black"/>
</svg>

<svg xmlns="http://www.w3.org/2000/svg" width="24" height="24" fill="none" viewBox="0 0 24 24">
  <path fill="#000" fill-rule="evenodd" d="m2.808 4.222 1.414-1.414 16.97 16.97-1.414 1.414-2.873-2.872a7.96 7.96 0 0 1-3.904 1.618L13 22h-2v-2.062a8.004 8.004 0 0 1-6.938-6.937L2 13v-2h2.062A7.96 7.96 0 0 1 5.68 7.094L2.808 4.222ZM6 12a6 6 0 0 0 9.476 4.89L7.11 8.525A5.973 5.973 0 0 0 6 12Zm7-10 .001 2.062A8.004 8.004 0 0 1 19.938 11H22v2h-2.062a7.946 7.946 0 0 1-.57 2.124l-1.571-1.57a6 6 0 0 0-7.35-7.35l-1.572-1.57A7.946 7.946 0 0 1 11 4.061V2h2Z" clip-rule="evenodd"/>
</svg>
